static/markerOrange.svg

<svg width="30" height="36" viewBox="0 0 30 36" fill="none" xmlns="http://www.w3.org/2000/svg">
<path d="M25.2 4.31671C22.14 1.25671 18.07 -0.173289 14.06 0.0167109C10.52 0.186711 7.02 1.61671 4.32 4.32671C-1.44 10.0867 -1.44 19.4367 4.32 25.2067L14.76 35.6467L25.2 25.2067C30.96 19.4467 30.96 10.0967 25.2 4.32671V4.31671Z" fill="#F6A60A"/>
<path d="M14.4539 6.16999C14.152 6.28633 13.6238 6.55778 13.3032 6.79045C12.3222 7.48847 6.3801 14.0615 5.77646 15.1085C5.50592 15.5778 5.21054 16.4011 5.21054 17.6679C5.21054 18.7538 5.286 19.3548 5.77646 20.2661C6.07828 20.8284 6.62533 21.5458 6.98375 21.856C8.19104 22.8643 8.92673 23 13.4352 23H17.5287L21.8485 18.8313C24.2065 16.5239 26.1683 14.5268 26.2061 14.3717C26.2627 14.1197 25.8099 14.0809 23.2444 14.0809C21.5655 14.0809 20.2073 14.0615 20.2073 14.0227C20.2073 14.0033 20.3394 13.6349 20.4903 13.2083C20.8864 12.045 20.8487 10.0867 20.3771 9.03963C19.9055 7.95382 19.0189 7.00374 18.038 6.48022C17.1703 6.01488 15.265 5.84037 14.4539 6.16999ZM17.6984 7.19763C19.2076 7.97321 20.0187 9.42741 20.0187 11.3276C19.9998 13.0726 19.5282 13.9064 17.1325 16.2913L15.0198 18.3853L14.8877 17.3965C14.4916 14.6238 12.5109 12.6654 10.0774 12.6461C9.41719 12.6267 8.889 12.5879 8.889 12.5297C8.889 12.4716 10.0208 11.25 11.3979 9.79581C13.1522 7.93443 14.0766 7.10069 14.5482 6.96496C15.68 6.59656 16.6798 6.67412 17.6984 7.19763ZM11.4356 13.6737C12.4543 14.139 13.6804 15.6126 13.9823 16.6984C14.7557 19.5099 12.1713 22.2244 9.71901 21.158C7.85149 20.363 6.92716 18.2884 7.64399 16.5239C8.43627 14.585 11.2659 14.5462 12.1525 16.4658C13.0957 18.5017 11.7752 20.3437 9.96424 19.4905C9.43606 19.2385 8.889 18.3659 8.889 17.7455C8.889 17.222 9.39833 16.6015 9.81333 16.6015C10.3038 16.6015 10.9263 17.1444 11.0018 17.6097C11.0772 18.1139 11.4922 18.2884 11.6431 17.8812C11.8318 17.3965 11.3413 16.4076 10.7565 16.1168C9.54924 15.4575 8.37968 16.0974 8.2099 17.474C7.96467 19.4905 10.1717 21.1192 11.9072 20.2273C13.4729 19.413 13.6804 16.8536 12.3222 15.38C11.5865 14.585 10.9263 14.2748 9.90765 14.2748C8.81355 14.2748 7.81376 14.8177 7.19125 15.7678C6.81397 16.3494 6.71965 16.7178 6.71965 17.7455C6.71965 19.762 7.77603 21.2743 9.62469 21.953C10.4358 22.2632 9.86993 22.3214 8.889 22.0305C7.90808 21.7591 6.83284 20.7314 6.32351 19.6262C4.66349 15.981 8.04013 12.0838 11.4356 13.6737ZM23.7726 15.8841C23.1878 16.4464 21.4712 18.0945 19.981 19.5487L17.2457 22.2244L14.2464 22.205C11.794 22.1856 11.379 22.1469 12.0015 21.9918C12.6241 21.8172 13.3786 21.1386 16.1516 18.3272L19.5471 14.8564L22.1881 14.8758H24.829L23.7726 15.8841Z" fill="white"/>
</svg>

<svg xmlns="http://www.w3.org/2000/svg" width="30" height="36" fill="none"><path fill="#F6A60A" d="M25.2 4.317a14.715 14.715 0 0 0-11.14-4.3c-3.54.17-7.04 1.6-9.74 4.31-5.76 5.76-5.76 15.11 0 20.88l10.44 10.44 10.44-10.44c5.76-5.76 5.76-15.11 0-20.88v-.01Z"/><path fill="#fff" d="M14.454 6.17a6.1 6.1 0 0 0-1.15.62c-.982.698-6.924 7.272-7.528 8.319-.27.469-.565 1.292-.565 2.559 0 1.086.075 1.687.565 2.598.302.562.85 1.28 1.208 1.59C8.19 22.864 8.927 23 13.435 23h4.094l4.32-4.169c2.357-2.307 4.32-4.304 4.357-4.46.057-.251-.396-.29-2.962-.29-1.678 0-3.037-.02-3.037-.058 0-.02.132-.388.283-.815.396-1.163.359-3.121-.113-4.168-.471-1.086-1.358-2.036-2.339-2.56-.868-.465-2.773-.64-3.584-.31Zm3.244 1.028c1.51.775 2.32 2.23 2.32 4.13-.018 1.745-.49 2.578-2.886 4.963l-2.112 2.094-.132-.989c-.396-2.772-2.377-4.73-4.81-4.75-.66-.02-1.189-.058-1.189-.116s1.132-1.28 2.509-2.734c1.754-1.862 2.679-2.695 3.15-2.831 1.132-.368 2.132-.29 3.15.233Zm-6.262 6.476c1.018.465 2.244 1.939 2.546 3.024.774 2.812-1.81 5.526-4.263 4.46-1.868-.795-2.792-2.87-2.075-4.634.792-1.939 3.622-1.978 4.508-.058.944 2.036-.377 3.878-2.188 3.024-.528-.252-1.075-1.124-1.075-1.744 0-.524.51-1.144.924-1.144.49 0 1.113.542 1.189 1.008.075.504.49.678.641.271.189-.485-.302-1.473-.886-1.764-1.208-.66-2.377-.02-2.547 1.357-.245 2.017 1.962 3.645 3.697 2.753 1.566-.814 1.773-3.373.415-4.847-.736-.795-1.396-1.105-2.414-1.105-1.094 0-2.094.543-2.717 1.493-.377.581-.471.95-.471 1.977 0 2.017 1.056 3.53 2.905 4.208.81.31.245.368-.736.078-.98-.272-2.056-1.3-2.565-2.405-1.66-3.645 1.716-7.542 5.112-5.952Zm12.337 2.21c-.585.562-2.302 2.21-3.792 3.665l-2.735 2.675-3-.019c-2.452-.02-2.867-.058-2.245-.213.623-.175 1.378-.853 4.15-3.665l3.396-3.47 2.641.019h2.641l-1.056 1.008Z"/></svg>
